X: 10611
T: Dowd's Favourite
R: reel
M: 4/4
K: Gdorian
DGGA B2GB|A~F3 CFA,F|DGGA [D3B3]B|{c}BAGA {c}BA[DA]F|
DGGA B2GB|A~F3 CFA,F|DGGA [D3B3]d|cA[Af]c [Ae]GG2|

